X:831
M:C|
L:1/8
K:D
|:g|faef defa|AFED E2Eg|faef defa|AGFE D2D:|
|:A|FADA FADB|AFED E2EG|FADA FADB|AGFE D2D:|
|:g|faef defa|AFED E2Eg|faef defa|AGFE D2D:|

